src/assets/filled/Reserve.svg

<svg width="24" height="24" viewBox="0 0 24 24"  xmlns="http://www.w3.org/2000/svg">
<path d="M21.97 18V19C21.97 20.65 21.97 22 18.97 22H4.96997C1.96997 22 1.96997 20.65 1.96997 19V18C1.96997 17.45 2.41997 17 2.96997 17H20.97C21.52 17 21.97 17.45 21.97 18Z" />
<path d="M14.41 5.17977C14.46 4.97977 14.49 4.78977 14.5 4.57977C14.53 3.41977 13.82 2.39977 12.7 2.09977C11.02 1.63977 9.50002 2.89977 9.50002 4.49977C9.50002 4.73977 9.53002 4.95977 9.59002 5.17977C5.98002 5.94977 3.27002 9.15977 3.27002 12.9998V14.4998C3.27002 15.0498 3.72002 15.4998 4.27002 15.4998H19.72C20.27 15.4998 20.72 15.0498 20.72 14.4998V12.9998C20.72 9.15977 18.02 5.95977 14.41 5.17977ZM15 11.7498H9.00002C8.59002 11.7498 8.25002 11.4098 8.25002 10.9998C8.25002 10.5898 8.59002 10.2498 9.00002 10.2498H15C15.41 10.2498 15.75 10.5898 15.75 10.9998C15.75 11.4098 15.41 11.7498 15 11.7498Z" />
</svg>

<?xml version="1.0" encoding="UTF-8"?>
<svg width="24" height="24" viewBox="0 0 24 24" xmlns="http://www.w3.org/2000/svg">
 <path d="m21.97 18v1c0 1.65 0 3-3 3h-14c-3 0-3-1.35-3-3v-1c0-0.55 0.45-1 1-1h18c0.55 0 1 0.45 1 1z"/>
 <path d="m14.41 5.1798c0.05-0.2 0.08-0.39 0.09-0.6 0.03-1.16-0.68-2.18-1.8-2.48-1.68-0.46-3.2 0.8-3.2 2.4 0 0.24 0.03 0.46 0.09 0.68-3.61 0.77-6.32 3.98-6.32 7.82v1.5c0 0.55 0.45 1 1 1h15.45c0.55 0 1-0.45 1-1v-1.5c0-3.84-2.7-7.04-6.31-7.82zm0.59 6.57h-6c-0.41 0-0.75-0.34-0.75-0.75s0.34-0.75 0.75-0.75h6c0.41 0 0.75 0.34 0.75 0.75s-0.34 0.75-0.75 0.75z"/>
</svg>
